X:1
T: Mrs Laing of Fochaber's Strathspey
C:William Marshall
R:Strathspey
Q: 128
K:Eb
M:4/4
L:1/16
|:B,2|E4 B3G EFGA B2G2|E3G B2B,2 C2F2 F2G2|E4 B3G EFGA B2e2|d3e fgaf g2e2 e2B,2|
E4 B3G EFGA B2G2|E3G B2B,2 C2F2 F2G2|E4 B3G EFGA B2e2|d3e fgaf g2e2 e2g2|
fedc B2=A2 B3c B2e2|defg agfe d2f2 f2g2|fedc B2=A2 B3c B2F2|G2B2 =A2c2 d2B2 B2G2|
A2c2 c2e2 G2B2 B2e2|F3G AGFE D2F2 F2G2|E2G,2 A,2B,2 C2D2 E2B,2|C2E2 D2F2 B,2E2 E2:|
